X:171
T:Edinburgh Ladies' Pipe Band, The
R:Jig
M:6/8
L:1/8
Q:116
K:D
|:A |\
"D" dfA dfa | "G" gag "D"  fed | "G"  gBB Bcd | "E7" efd "A7" cBA  |!
"D" dfA dfa | "G" gag "D"  fed | "Em" gBB c2e | "A7" gfe "D"  d2  ||!
|| g |\
"D" aga fed |     fad "Bm" fed | "G"  gBB Bcd | "E7" efd "A7" cBA  |!
"D" aga fed |     fad "Bm" fed | "Em" gBB c2e | "A7" gfe "D"  d2   :|]
